docs/.vuepress/public/svg/termius-logo.svg

<?xml version="1.0" encoding="UTF-8" standalone="no"?>
<!DOCTYPE svg PUBLIC "-//W3C//DTD SVG 1.1//EN" "http://www.w3.org/Graphics/SVG/1.1/DTD/svg11.dtd">
<svg width="100%" height="100%" viewBox="0 0 362 96" version="1.1" xmlns="http://www.w3.org/2000/svg"
    xmlns:xlink="http://www.w3.org/1999/xlink" xml:space="preserve" xmlns:serif="http://www.serif.com/"
    style="fill-rule:evenodd;clip-rule:evenodd;">
    <rect x="0" y="0" width="362" height="96" style="fill:#fff;" />
    <g>
        <clipPath id="_clip1">
            <rect x="0.5" y="0" width="361" height="96" />
        </clipPath>
        <g clip-path="url(#_clip1)">
            <path
                d="M148.426,25.971l-8.734,-0l0,4.11c0,2.954 -1.605,5.202 -4.945,5.202l-1.605,-0l-0,8.541l5.651,0l-0,13.679c-0,6.358 4.046,10.275 10.661,10.275c3.082,0 4.688,-0.706 5.073,-0.899l-0,-8.091c-0.578,0.128 -1.541,0.321 -2.569,0.321c-2.119,-0 -3.532,-0.707 -3.532,-3.34l-0,-11.945l6.23,0l-0,-8.541l-6.23,-0l-0,-9.312Zm20.23,21.45l12.78,-0c-0.129,-2.441 -1.799,-5.395 -6.422,-5.395c-4.111,0 -6.166,3.018 -6.358,5.395Zm13.486,8.284l8.156,2.312c-1.541,5.523 -6.615,10.147 -14.706,10.147c-8.799,-0 -16.634,-6.294 -16.634,-17.019c-0,-10.275 7.643,-16.825 15.927,-16.825c9.89,-0 15.991,6.101 15.991,16.376c-0,1.349 -0.128,2.826 -0.193,3.018l-22.22,0c0.193,3.597 3.468,6.165 7.257,6.165c3.532,0 5.523,-1.669 6.422,-4.174Zm35.321,-20.422c-0.642,-0.193 -1.605,-0.321 -2.568,-0.321c-2.569,-0 -6.615,1.027 -8.285,4.624l0,-4.303l-9.44,-0l-0,31.918l9.761,-0l0,-13.936c0,-6.358 3.532,-8.67 7.45,-8.67c0.963,-0 1.991,0.064 3.082,0.321l0,-9.633Zm15.349,31.918l0,-18.368c0,-2.889 1.863,-5.522 5.266,-5.522c3.532,-0 5.138,2.376 5.138,5.394l0,18.496l9.633,-0l0,-18.432c0,-2.825 1.862,-5.458 5.33,-5.458c3.468,-0 5.074,2.376 5.074,5.394l0,18.496l9.44,-0l0,-20.679c0,-8.67 -5.78,-12.202 -11.816,-12.202c-4.303,-0 -7.386,1.412 -9.89,5.009c-1.606,-3.147 -4.881,-5.009 -9.441,-5.009c-3.468,-0 -7.578,1.798 -9.183,4.623l-0,-3.66l-9.312,-0l-0,31.918l9.761,-0Zm57.863,-0l0,-31.918l-9.761,-0l0,31.918l9.761,-0Zm-10.596,-41.68c0,3.147 2.568,5.716 5.651,5.716c3.211,0 5.78,-2.569 5.78,-5.716c0,-3.146 -2.569,-5.715 -5.78,-5.715c-3.083,-0 -5.651,2.569 -5.651,5.715Zm39.752,41.68l9.376,-0c-0.064,-0.514 -0.321,-2.826 -0.321,-5.716l0,-26.202l-9.761,-0l0,18.174c0,3.211 -2.055,5.459 -5.33,5.459c-3.468,0 -5.138,-2.44 -5.138,-5.523l0,-18.11l-9.762,-0l0,20.165c0,6.808 4.367,12.459 12.138,12.459c3.211,0 6.872,-1.156 8.541,-3.917c0,0.834 0.129,2.633 0.257,3.211Zm15.028,-9.056c0.257,3.533 3.468,10.019 13.486,10.019c8.542,-0 12.716,-5.33 12.716,-10.789c0,-4.688 -3.211,-8.67 -9.826,-10.019l-4.238,-0.834c-1.413,-0.257 -2.505,-1.028 -2.505,-2.377c0,-1.669 1.606,-2.761 3.468,-2.761c2.954,-0 4.303,1.798 4.56,3.917l8.091,-1.477c-0.321,-3.725 -3.532,-9.504 -12.779,-9.504c-7.129,-0 -12.267,4.752 -12.267,10.596c0,4.495 2.698,8.349 9.505,9.826l3.661,0.835c2.376,0.513 3.146,1.477 3.146,2.633c0,1.413 -1.22,2.761 -3.724,2.761c-3.34,0 -4.881,-2.119 -5.01,-4.303l-8.284,1.477Z"
                style="fill:#141729;" />
            <path
                d="M83.147,81.851c-0.382,-0 -0.765,-0.008 -1.148,-0.024c-5.406,8.209 -14.571,13.203 -24.511,13.203l-0,-7.486c8.03,-0 15.372,-4.367 19.216,-11.428l1.224,-2.249l2.54,0.326c0.888,0.114 1.79,0.172 2.679,0.172c11.51,-0 20.881,-9.371 20.881,-20.882c-0,-6.173 -2.864,-12.219 -7.651,-16.154l-1.477,-1.213l0.117,-1.907c0.024,-0.396 0.037,-0.798 0.037,-1.197c-0,-11.046 -8.994,-20.04 -20.04,-20.04c-3.979,0 -7.812,1.162 -11.119,3.369l-2.786,1.86l-2.157,-2.565c-3.828,-4.553 -9.399,-7.15 -15.345,-7.15c-11.046,-0 -20.039,8.993 -20.039,20.04c0,0.308 0.007,0.62 0.022,0.929l0.119,2.543l-2.321,1.045c-7.544,3.398 -12.402,10.907 -12.402,19.178c-0,11.589 9.433,21.022 21.021,21.022c1.232,0 2.467,-0.107 3.672,-0.319l2.811,-0.495l1.221,2.579c3.61,7.624 11.357,12.536 19.777,12.536l-0,7.486c-10.393,-0 -19.996,-5.552 -25.249,-14.387c-0.742,0.057 -1.487,0.086 -2.232,0.086c-15.722,0 -28.507,-12.785 -28.507,-28.508c-0,-10.388 5.648,-19.887 14.608,-24.893c0.629,-14.627 12.72,-26.328 27.499,-26.328c7.085,0 13.802,2.697 18.885,7.498c3.863,-1.978 8.135,-3.012 12.522,-3.012c15.105,0 27.403,12.223 27.525,27.3c5.661,5.33 8.975,12.908 8.975,20.697c-0,15.645 -12.722,28.368 -28.367,28.368Zm-11.44,-24.255c-2.542,0.972 -5.045,1.465 -7.452,1.465c-2.416,-0 -4.799,-0.495 -7.077,-1.469c-0.092,-0.039 -0.092,-0.039 -0.184,-0.078c-0.839,-0.361 -1.198,-0.796 -1.198,-1.75l-0,-1.274c-0,-1.121 0.645,-1.842 1.697,-1.842l0.236,0.032l0.063,0.024c2.083,0.822 4.256,1.238 6.459,1.238c2.211,0 4.527,-0.419 6.882,-1.248l0.211,-0.046l0.059,-0c1.053,-0 1.699,0.721 1.699,1.842l-0,1.274c-0,1.014 -0.349,1.382 -1.321,1.8l-0.074,0.032Zm-31.211,-12.218c-0.714,0.15 -1.247,0.716 -1.247,1.743l-0,2.136c-0,0.807 0.495,1.362 1.266,1.362c0.181,-0 0.366,-0.03 0.574,-0.092l12.307,-3.981c0.934,-0.311 1.447,-1.061 1.447,-2.087l-0,-1.775c-0,-1.027 -0.513,-1.776 -1.446,-2.087l-12.281,-3.973c-0.218,-0.082 -0.436,-0.128 -0.647,-0.128c-0.651,0 -1.22,0.409 -1.22,1.357l-0,2.169c-0,0.988 0.516,1.552 1.231,1.739l6.897,1.811l-6.881,1.806Z"
                style="fill:#141729;fill-rule:nonzero;" />
            <path
                d="M57.488,95.03c9.94,-0 19.105,-4.995 24.511,-13.203c0.383,0.016 0.766,0.024 1.148,0.024c15.645,-0 28.367,-12.723 28.367,-28.368c0,-7.789 -3.314,-15.367 -8.975,-20.697c-0.122,-15.077 -12.42,-27.3 -27.525,-27.3c-4.387,0 -8.658,1.034 -12.522,3.012c-5.083,-4.801 -11.8,-7.498 -18.885,-7.498c-14.779,-0 -26.87,11.701 -27.499,26.328c-8.96,5.006 -14.608,14.505 -14.608,24.893c0,15.723 12.785,28.508 28.507,28.508c0.745,0 1.49,-0.029 2.232,-0.087c5.253,8.836 14.856,14.388 25.249,14.388Zm-0,-0l-0,-7.486m-0,-0c8.03,-0 15.372,-4.367 19.216,-11.428l1.224,-2.249l2.54,0.326c0.888,0.114 1.79,0.172 2.679,0.172c11.51,-0 20.881,-9.371 20.881,-20.882c-0,-6.173 -2.864,-12.219 -7.651,-16.154l-1.477,-1.213l0.117,-1.907c0.024,-0.396 0.037,-0.798 0.037,-1.197c-0,-11.046 -8.994,-20.04 -20.04,-20.04c-3.979,0 -7.812,1.162 -11.119,3.369l-2.786,1.86l-2.157,-2.565c-3.828,-4.553 -9.399,-7.15 -15.345,-7.15c-11.046,-0 -20.039,8.993 -20.039,20.04c0,0.308 0.007,0.62 0.022,0.929l0.119,2.543l-2.321,1.045c-7.544,3.398 -12.402,10.907 -12.402,19.178c-0,11.589 9.433,21.022 21.021,21.022c1.232,0 2.467,-0.107 3.672,-0.319l2.811,-0.495l1.221,2.579c3.61,7.624 11.357,12.536 19.777,12.536Zm14.219,-29.948c-2.542,0.973 -5.045,1.465 -7.452,1.465c-2.416,0 -4.799,-0.495 -7.077,-1.469c-0.092,-0.038 -0.092,-0.038 -0.184,-0.078c-0.839,-0.361 -1.198,-0.796 -1.198,-1.75l-0,-1.274c-0,-1.121 0.645,-1.842 1.697,-1.842l0.236,0.032l0.063,0.024c2.083,0.822 4.256,1.238 6.459,1.238c2.211,0 4.527,-0.419 6.882,-1.248l0.211,-0.046l0.059,-0c1.053,-0 1.699,0.721 1.699,1.842l-0,1.274c-0,1.014 -0.349,1.382 -1.321,1.801l-0.074,0.031Zm-31.211,-12.218c-0.714,0.15 -1.247,0.716 -1.247,1.743l-0,2.137c-0,0.807 0.495,1.361 1.266,1.361c0.181,-0 0.366,-0.03 0.574,-0.092l12.307,-3.981c0.934,-0.311 1.447,-1.061 1.447,-2.087l-0,-1.775c-0,-1.026 -0.513,-1.776 -1.446,-2.087l-12.281,-3.973c-0.218,-0.082 -0.436,-0.128 -0.647,-0.128c-0.651,0 -1.22,0.409 -1.22,1.357l-0,2.169c-0,0.988 0.516,1.552 1.231,1.739l6.897,1.811l-6.881,1.806Z"
                style="fill:none;fill-rule:nonzero;stroke:#141729;stroke-width:0.5px;" />
        </g>
    </g>
</svg>

<?xml version="1.0" encoding="UTF-8" standalone="no"?>
<!DOCTYPE svg PUBLIC "-//W3C//DTD SVG 1.1//EN" "http://www.w3.org/Graphics/SVG/1.1/DTD/svg11.dtd">
<svg width="100%" height="100%" viewBox="0 0 370 185" version="1.1" xmlns="http://www.w3.org/2000/svg" xmlns:xlink="http://www.w3.org/1999/xlink" xml:space="preserve" xmlns:serif="http://www.serif.com/" style="fill-rule:evenodd;clip-rule:evenodd;">
    <path d="M370,27.75L370,157.25C370,172.566 357.566,185 342.25,185L27.75,185C12.434,185 0,172.566 0,157.25L0,27.75C0,12.434 12.434,0 27.75,0L342.25,0C357.566,0 370,12.434 370,27.75Z" style="fill:rgb(238,238,238);"/>
    <g transform="matrix(1,0,0,1,4,44.5)">
        <g>
            <clipPath id="_clip1">
                <rect x="0.5" y="0" width="361" height="96"/>
            </clipPath>
            <g clip-path="url(#_clip1)">
                <path d="M148.426,25.971L139.692,25.971L139.692,30.081C139.692,33.035 138.087,35.283 134.747,35.283L133.142,35.283L133.142,43.824L138.793,43.824L138.793,57.503C138.793,63.861 142.839,67.778 149.454,67.778C152.536,67.778 154.142,67.072 154.527,66.879L154.527,58.788C153.949,58.916 152.986,59.109 151.958,59.109C149.839,59.109 148.426,58.402 148.426,55.769L148.426,43.824L154.656,43.824L154.656,35.283L148.426,35.283L148.426,25.971ZM168.656,47.421L181.436,47.421C181.307,44.98 179.637,42.026 175.014,42.026C170.903,42.026 168.848,45.044 168.656,47.421ZM182.142,55.705L190.298,58.017C188.757,63.54 183.683,68.164 175.592,68.164C166.793,68.164 158.958,61.87 158.958,51.145C158.958,40.87 166.601,34.32 174.885,34.32C184.775,34.32 190.876,40.421 190.876,50.696C190.876,52.045 190.748,53.522 190.683,53.714L168.463,53.714C168.656,57.311 171.931,59.879 175.72,59.879C179.252,59.879 181.243,58.21 182.142,55.705ZM217.463,35.283C216.821,35.09 215.858,34.962 214.895,34.962C212.326,34.962 208.28,35.989 206.61,39.586L206.61,35.283L197.17,35.283L197.17,67.201L206.931,67.201L206.931,53.265C206.931,46.907 210.463,44.595 214.381,44.595C215.344,44.595 216.372,44.659 217.463,44.916L217.463,35.283ZM232.812,67.201L232.812,48.833C232.812,45.944 234.675,43.311 238.078,43.311C241.61,43.311 243.216,45.687 243.216,48.705L243.216,67.201L252.849,67.201L252.849,48.769C252.849,45.944 254.711,43.311 258.179,43.311C261.647,43.311 263.253,45.687 263.253,48.705L263.253,67.201L272.693,67.201L272.693,46.522C272.693,37.852 266.913,34.32 260.877,34.32C256.574,34.32 253.491,35.732 250.987,39.329C249.381,36.182 246.106,34.32 241.546,34.32C238.078,34.32 233.968,36.118 232.363,38.943L232.363,35.283L223.051,35.283L223.051,67.201L232.812,67.201ZM290.675,67.201L290.675,35.283L280.914,35.283L280.914,67.201L290.675,67.201ZM280.079,25.521C280.079,28.668 282.647,31.237 285.73,31.237C288.941,31.237 291.51,28.668 291.51,25.521C291.51,22.375 288.941,19.806 285.73,19.806C282.647,19.806 280.079,22.375 280.079,25.521ZM319.831,67.201L329.207,67.201C329.143,66.687 328.886,64.375 328.886,61.485L328.886,35.283L319.125,35.283L319.125,53.457C319.125,56.668 317.07,58.916 313.795,58.916C310.327,58.916 308.657,56.476 308.657,53.393L308.657,35.283L298.895,35.283L298.895,55.448C298.895,62.256 303.262,67.907 311.033,67.907C314.244,67.907 317.905,66.751 319.574,63.99C319.574,64.824 319.703,66.623 319.831,67.201ZM334.859,58.145C335.116,61.678 338.327,68.164 348.345,68.164C356.887,68.164 361.061,62.834 361.061,57.375C361.061,52.687 357.85,48.705 351.235,47.356L346.997,46.522C345.584,46.265 344.492,45.494 344.492,44.145C344.492,42.476 346.098,41.384 347.96,41.384C350.914,41.384 352.263,43.182 352.52,45.301L360.611,43.824C360.29,40.099 357.079,34.32 347.832,34.32C340.703,34.32 335.565,39.072 335.565,44.916C335.565,49.411 338.263,53.265 345.07,54.742L348.731,55.577C351.107,56.09 351.877,57.054 351.877,58.21C351.877,59.623 350.657,60.971 348.153,60.971C344.813,60.971 343.272,58.852 343.143,56.668L334.859,58.145Z" style="fill:rgb(20,23,41);"/>
                <path d="M83.147,81.851C82.765,81.851 82.382,81.843 81.999,81.827C76.593,90.036 67.428,95.03 57.488,95.03L57.488,87.544C65.518,87.544 72.86,83.177 76.704,76.116L77.928,73.867L80.468,74.193C81.356,74.307 82.258,74.365 83.147,74.365C94.657,74.365 104.028,64.994 104.028,53.483C104.028,47.31 101.164,41.264 96.377,37.329L94.9,36.116L95.017,34.209C95.041,33.813 95.054,33.411 95.054,33.012C95.054,21.966 86.06,12.972 75.014,12.972C71.035,12.972 67.202,14.134 63.895,16.341L61.109,18.201L58.952,15.636C55.124,11.083 49.553,8.486 43.607,8.486C32.561,8.486 23.568,17.479 23.568,28.526C23.568,28.834 23.575,29.146 23.59,29.455L23.709,31.998L21.388,33.043C13.844,36.441 8.986,43.95 8.986,52.221C8.986,63.81 18.419,73.243 30.007,73.243C31.239,73.243 32.474,73.136 33.679,72.924L36.49,72.429L37.711,75.008C41.321,82.632 49.068,87.544 57.488,87.544L57.488,95.03C47.095,95.03 37.492,89.478 32.239,80.643C31.497,80.7 30.752,80.729 30.007,80.729C14.285,80.729 1.5,67.944 1.5,52.221C1.5,41.833 7.148,32.334 16.108,27.328C16.737,12.701 28.828,1 43.607,1C50.692,1 57.409,3.697 62.492,8.498C66.355,6.52 70.627,5.486 75.014,5.486C90.119,5.486 102.417,17.709 102.539,32.786C108.2,38.116 111.514,45.694 111.514,53.483C111.514,69.128 98.792,81.851 83.147,81.851ZM71.707,57.596C69.165,58.568 66.662,59.061 64.255,59.061C61.839,59.061 59.456,58.566 57.178,57.592C57.086,57.553 57.086,57.553 56.994,57.514C56.155,57.153 55.796,56.718 55.796,55.764L55.796,54.49C55.796,53.369 56.441,52.648 57.493,52.648L57.729,52.68L57.792,52.704C59.875,53.526 62.048,53.942 64.251,53.942C66.462,53.942 68.778,53.523 71.133,52.694L71.344,52.648L71.403,52.648C72.456,52.648 73.102,53.369 73.102,54.49L73.102,55.764C73.102,56.778 72.753,57.146 71.781,57.564L71.707,57.596ZM40.496,45.378C39.782,45.528 39.249,46.094 39.249,47.121L39.249,49.257C39.249,50.064 39.744,50.619 40.515,50.619C40.696,50.619 40.881,50.589 41.089,50.527L53.396,46.546C54.33,46.235 54.843,45.485 54.843,44.459L54.843,42.684C54.843,41.657 54.33,40.908 53.397,40.597L41.116,36.624C40.898,36.542 40.68,36.496 40.469,36.496C39.818,36.496 39.249,36.905 39.249,37.853L39.249,40.022C39.249,41.01 39.765,41.574 40.48,41.761L47.377,43.572L40.496,45.378Z" style="fill:rgb(20,23,41);fill-rule:nonzero;"/>
                <path d="M57.488,95.03C67.428,95.03 76.593,90.035 81.999,81.827C82.382,81.843 82.765,81.851 83.147,81.851C98.792,81.851 111.514,69.128 111.514,53.483C111.514,45.694 108.2,38.116 102.539,32.786C102.417,17.709 90.119,5.486 75.014,5.486C70.627,5.486 66.356,6.52 62.492,8.498C57.409,3.697 50.692,1 43.607,1C28.828,1 16.737,12.701 16.108,27.328C7.148,32.334 1.5,41.833 1.5,52.221C1.5,67.944 14.285,80.729 30.007,80.729C30.752,80.729 31.497,80.7 32.239,80.642C37.492,89.478 47.095,95.03 57.488,95.03ZM57.488,95.03L57.488,87.544M57.488,87.544C65.518,87.544 72.86,83.177 76.704,76.116L77.928,73.867L80.468,74.193C81.356,74.307 82.258,74.365 83.147,74.365C94.657,74.365 104.028,64.994 104.028,53.483C104.028,47.31 101.164,41.264 96.377,37.329L94.9,36.116L95.017,34.209C95.041,33.813 95.054,33.411 95.054,33.012C95.054,21.966 86.06,12.972 75.014,12.972C71.035,12.972 67.202,14.134 63.895,16.341L61.109,18.201L58.952,15.636C55.124,11.083 49.553,8.486 43.607,8.486C32.561,8.486 23.568,17.479 23.568,28.526C23.568,28.834 23.575,29.146 23.59,29.455L23.709,31.998L21.388,33.043C13.844,36.441 8.986,43.95 8.986,52.221C8.986,63.81 18.419,73.243 30.007,73.243C31.239,73.243 32.474,73.136 33.679,72.924L36.49,72.429L37.711,75.008C41.321,82.632 49.068,87.544 57.488,87.544ZM71.707,57.596C69.165,58.569 66.662,59.061 64.255,59.061C61.839,59.061 59.456,58.566 57.178,57.592C57.086,57.554 57.086,57.554 56.994,57.514C56.155,57.153 55.796,56.718 55.796,55.764L55.796,54.49C55.796,53.369 56.441,52.648 57.493,52.648L57.729,52.68L57.792,52.704C59.875,53.526 62.048,53.942 64.251,53.942C66.462,53.942 68.778,53.523 71.133,52.694L71.344,52.648L71.403,52.648C72.456,52.648 73.102,53.369 73.102,54.49L73.102,55.764C73.102,56.778 72.753,57.146 71.781,57.565L71.707,57.596ZM40.496,45.378C39.782,45.528 39.249,46.094 39.249,47.121L39.249,49.258C39.249,50.065 39.744,50.619 40.515,50.619C40.696,50.619 40.881,50.589 41.089,50.527L53.396,46.546C54.33,46.235 54.843,45.485 54.843,44.459L54.843,42.684C54.843,41.658 54.33,40.908 53.397,40.597L41.116,36.624C40.898,36.542 40.68,36.496 40.469,36.496C39.818,36.496 39.249,36.905 39.249,37.853L39.249,40.022C39.249,41.01 39.765,41.574 40.48,41.761L47.377,43.572L40.496,45.378Z" style="fill:none;fill-rule:nonzero;stroke:rgb(20,23,41);stroke-width:0.5px;"/>
            </g>
        </g>
    </g>
</svg>
